X: 15121
T: Gibraltar Point
R: reel
M: 4/4
K: Gmajor
|:B/c/d/e/ dB cABG|A=FFA =fA A2|
B/c/d/e/ dB cABG|A=FFA AG G2:|
g>a gd e/f/g dB|cA=FA cAFA|
g>a gd e/f/g dB|c/B/A/G/ =FA AG G2|
g>a gd e/f/g dB|cA=FA cAFA|
B/c/d/e/ dB cABG|A=FFA AG G2||

